actions/16/attach.svg

<?xml version="1.0" encoding="UTF-8"?>
<svg id="a" width="16" height="16" version="1.1" xmlns="http://www.w3.org/2000/svg" xmlns:cc="http://creativecommons.org/ns#" xmlns:dc="http://purl.org/dc/elements/1.1/" xmlns:rdf="http://www.w3.org/1999/02/22-rdf-syntax-ns#">
	<metadata id="e">
		<rdf:RDF>
			<cc:Work rdf:about="">
				<dc:format>image/svg+xml</dc:format>
				<dc:type rdf:resource="http://purl.org/dc/dcmitype/StillImage"/>
				<dc:title/>
			</cc:Work>
		</rdf:RDF>
	</metadata>
	<defs>
		<style id="current-color-scheme" type="text/css">.ColorScheme-Text {color:#090d11;}.ColorScheme-Background{color:#ffffff;}</style>
	</defs>
	<g id="b" transform="translate(9406.6 -5955.9)">
		<path id="c" d="m-9392.6 5966.9v-7l-2.0005 1e-4 5e-4 5.9999-3 3h-1l-3-3 3e-4 -7h3.9997v5h-1v-4h-2.0005l5e-4 5 2 2h1l2-2v-7.9998h-8.0007l-4e-4 9.9998 4 4h3z" style="fill-opacity:.75;fill:currentColor" class="ColorScheme-Text"/>
		<path id="d" transform="translate(-9406.6 5955.9)" d="m2 0v1 10 0.40625l0.0625 0.5625 4 4 0.53125 0.03125h0.40625 3 0.4375l0.53125-0.03125 4-4 0.03125-0.5625v-0.40625-7h-1v7l-4 4h-3l-4-4v-10h8v8l-2 2h-1l-2-2v-5h2v4h1v-5h-4v7l3 3h1l3-3v-6-1-1-1-1h-1-8-1z" style="fill-opacity:.5;fill:currentColor" class="ColorScheme-Background"/>
	</g>
</svg>

<?xml version="1.0" encoding="UTF-8" standalone="no"?>
<!-- Created with Inkscape (http://www.inkscape.org/) -->

<svg
   xmlns:dc="http://purl.org/dc/elements/1.1/"
   xmlns:cc="http://creativecommons.org/ns#"
   xmlns:rdf="http://www.w3.org/1999/02/22-rdf-syntax-ns#"
   xmlns:svg="http://www.w3.org/2000/svg"
   xmlns="http://www.w3.org/2000/svg"
   xmlns:sodipodi="http://sodipodi.sourceforge.net/DTD/sodipodi-0.dtd"
   xmlns:inkscape="http://www.inkscape.org/namespaces/inkscape"
   width="16.000002"
   height="16.000002"
   id="svg13094"
   version="1.1"
   inkscape:version="0.48.3.1 r9886"
   sodipodi:docname="attach.svg">
  <sodipodi:namedview
     id="base"
     pagecolor="#ffffff"
     bordercolor="#666666"
     borderopacity="1.0"
     inkscape:pageopacity="0.0"
     inkscape:pageshadow="2"
     inkscape:zoom="45.254832"
     inkscape:cx="4.951977"
     inkscape:cy="7.5818519"
     inkscape:document-units="px"
     inkscape:current-layer="layer1"
     showgrid="true"
     inkscape:snap-bbox="true"
     inkscape:bbox-paths="true"
     inkscape:bbox-nodes="true"
     inkscape:snap-bbox-edge-midpoints="true"
     inkscape:snap-bbox-midpoints="true"
     inkscape:object-paths="true"
     inkscape:snap-intersection-paths="true"
     inkscape:object-nodes="true"
     inkscape:snap-smooth-nodes="true"
     inkscape:snap-midpoints="true"
     inkscape:snap-object-midpoints="true"
     inkscape:snap-center="true"
     showguides="false"
     inkscape:guide-bbox="true"
     inkscape:window-width="1920"
     inkscape:window-height="1032"
     inkscape:window-x="-7"
     inkscape:window-y="25"
     inkscape:window-maximized="1"
     inkscape:snap-global="true"
     fit-margin-top="0"
     fit-margin-left="0"
     fit-margin-right="0"
     fit-margin-bottom="0"
     showborder="true"
     inkscape:showpageshadow="false">
    <sodipodi:guide
       orientation="0,1"
       position="8.0001739,2058.7193"
       id="guide4700" />
    <sodipodi:guide
       orientation="0,1"
       position="8.0001739,1457.0002"
       id="guide4702" />
    <sodipodi:guide
       orientation="1,0"
       position="8.0001739,1641.9466"
       id="guide4704" />
    <sodipodi:guide
       orientation="1,0"
       position="609.71918,1595.9466"
       id="guide4706" />
    <sodipodi:guide
       orientation="1,0"
       position="66.000174,2000.7193"
       id="guide4708" />
    <sodipodi:guide
       orientation="0,1"
       position="66.000174,2000.7193"
       id="guide4710" />
    <sodipodi:guide
       orientation="0,1"
       position="551.71908,1515.0002"
       id="guide4712" />
    <sodipodi:guide
       orientation="1,0"
       position="551.71908,1515.0002"
       id="guide4714" />
    <inkscape:grid
       type="xygrid"
       id="grid3078"
       empspacing="5"
       visible="true"
       enabled="true"
       snapvisiblegridlinesonly="true"
       originx="0.0001299375px"
       originy="529.00017px" />
  </sodipodi:namedview>
  <defs
     id="defs13096" />
  <metadata
     id="metadata13099">
    <rdf:RDF>
      <cc:Work
         rdf:about="">
        <dc:format>image/svg+xml</dc:format>
        <dc:type
           rdf:resource="http://purl.org/dc/dcmitype/StillImage" />
        <dc:title />
      </cc:Work>
    </rdf:RDF>
  </metadata>
  <g
     transform="translate(9406.6162,-5955.8789)"
     id="layer1"
     inkscape:groupmode="layer"
     inkscape:label="Camada 1">
    <path
       sodipodi:nodetypes="ccccccccccccccccccccccc"
       inkscape:connector-curvature="0"
       id="path2992"
       d="m -9392.6161,5966.8787 0,-7 -2.0005,1e-4 5e-4,5.9999 -3,3 -1,0 -3,-3 3e-4,-7 3.9997,0 0,5 -1,0 0,-4 -2.0005,0 5e-4,5 2,2 1,0 2,-2 0,-7.9998 -8.0007,0 -4e-4,9.9998 4,4 3,0 z"
       style="font-size:medium;font-style:normal;font-variant:normal;font-weight:normal;font-stretch:normal;text-indent:0;text-align:start;text-decoration:none;line-height:normal;letter-spacing:normal;word-spacing:normal;text-transform:none;direction:ltr;block-progression:tb;writing-mode:lr-tb;text-anchor:start;baseline-shift:baseline;color:#000000;fill:#27303a;fill-opacity:0.753280819999999968;stroke:none;stroke-width:67.73358154;marker:none;visibility:visible;display:inline;overflow:visible;enable-background:accumulate;font-family:Sans;-inkscape-font-specification:Sans" />
    <path
       style="font-size:medium;font-style:normal;font-variant:normal;font-weight:normal;font-stretch:normal;text-indent:0;text-align:start;text-decoration:none;line-height:normal;letter-spacing:normal;word-spacing:normal;text-transform:none;direction:ltr;block-progression:tb;writing-mode:lr-tb;text-anchor:start;baseline-shift:baseline;color:#000000;fill:#f1f3f5;fill-opacity:0.90288714000000003;fill-rule:nonzero;stroke:none;stroke-width:2;marker:none;visibility:visible;display:inline;overflow:visible;enable-background:accumulate;font-family:Sans;-inkscape-font-specification:Sans"
       d="M 2 0 L 2 1 L 2 11 L 2 11.40625 L 2.0625 11.96875 L 6.0625 15.96875 L 6.59375 16 L 7 16 L 10 16 L 10.4375 16 L 10.96875 15.96875 L 14.96875 11.96875 L 15 11.40625 L 15 11 L 15 4 L 14 4 L 14 11 L 10 15 L 7 15 L 3 11 L 3 1 L 11 1 L 11 9 L 9 11 L 8 11 L 6 9 L 6 4 L 8 4 L 8 8 L 9 8 L 9 3 L 5 3 L 5 10 L 8 13 L 9 13 L 12 10 L 12 4 L 12 3 L 12 2 L 12 1 L 12 0 L 11 0 L 3 0 L 2 0 z "
       transform="translate(-9406.6162,5955.8789)"
       id="path4232" />
  </g>
</svg>
